X:69
T:Billy Wilson's Clog
S:Zelie from Ottawa
L:1/8
M:4/4
R:Hornpipe
K:D
(3GFE | DFAF GBAG | FAde f2ef | gfed cBcd | (3efe (3dcB (3ABA (3GFE |
DFAF GBAG | FAde f2ef | gfed cABc | dfec d2 :|
cd |: eAA2 fAA2 | gAfA fAA2 | gAfA edcd | (3efe (3dcB (3ABA (3GFE |
DFAF GBAG | FAde f2ef | gfed cABc | dfec d2 :|